packages/react-icons/icons/check-double.svg

<svg width="24" height="24" viewBox="0 0 24 24" xmlns="http://www.w3.org/2000/svg"><path fill-rule="evenodd" clip-rule="evenodd" d="M16.436 8.40456L11.9163 12.9243L10.6435 11.6515L15.1633 7.13177C15.5147 6.7803 16.0846 6.7803 16.436 7.13177C16.7875 7.48324 16.7875 8.05309 16.436 8.40456ZM7.95649 14.3385L9.22928 15.6113L7.9727 16.8679C7.62123 17.2194 7.05138 17.2194 6.69991 16.8679L2.36322 12.5313C2.01174 12.1798 2.01174 11.6099 2.36321 11.2585C2.71468 10.907 3.28453 10.907 3.636 11.2585L7.3363 14.9587L7.95649 14.3385ZM21.6361 8.40495C21.9876 8.05348 21.9876 7.48363 21.6361 7.13216C21.2847 6.78069 20.7148 6.78069 20.3633 7.13216L12.5364 14.9591L8.8361 11.2589C8.48463 10.9074 7.91478 10.9074 7.56331 11.2589C7.21184 11.6103 7.21184 12.1802 7.56331 12.5317L11.9 16.8683C12.2515 17.2198 12.8213 17.2198 13.1728 16.8683L21.6361 8.40495Z"/></svg>

<svg xmlns="http://www.w3.org/2000/svg" width="24" height="24"><path fill-rule="evenodd" d="m16.436 8.405-4.52 4.52-1.273-1.274 4.52-4.52a.9.9 0 1 1 1.273 1.274Zm-8.48 5.934L9.23 15.61l-1.256 1.257a.9.9 0 0 1-1.273 0L2.363 12.53a.9.9 0 1 1 1.273-1.273l3.7 3.7.62-.62Zm13.68-5.934a.9.9 0 1 0-1.273-1.273l-7.827 7.827-3.7-3.7a.9.9 0 1 0-1.273 1.273l4.337 4.336a.9.9 0 0 0 1.273 0l8.463-8.463Z" clip-rule="evenodd"/></svg>
